X: 34
T: Stool of Repentance
M: 6/8
K: A
L: 1/8
Q: 1/4=130
|: "A" a2 e c2 e | agf ece | aff "D" (f2 e) | fga (f2 e) |
"A" a2 e c2 e | agf ece | "D" def "A" efg | aec "E" (B2 A) :|
|: "A" cAA eAA | cAA edc | "D" dBB fBB | dBB fed |
"A" cAA eAA | cAA edc | "D" def "A" efg | aec "E" (B2 A) :|
W: End with an A chord.

